X: 1
T: Moishe's Reel
T: Eddie's Reel in Am
R: reel
Z: 1997 by John Chambers <jc:trillian.mit.edu>
N: From the klez gang in Albany, NY
M: C|
L: 1/8
K: Am
|: "Am"EAce a2a2 | EAce a4 \
| EAce a^gfe | "Dm"d3e dcB^G \
| "E7"E^GBe ^g4 \
| "E7"E^GBe ^g2f2 \
|1 e2e2 "(Dm)"fafd | "Am"c6 z2 :|
|2 "E7"e2e2 dB^GB | "Am"A4- A2e2 \
[| "Am"[c'3e][c'e] [c'2e][b2d] | [a4c]- [a2c][b2d] \
| "Am"[c'3e][c'e] [b2d][a2c] | "E7"[^g6B] [a2c] \
| [b3d][bd] [b2d][a2c] | "E7"[^g4B] [g2B][f2A] \
| [e2^G][e2G] "(Dm)"fafd | "Am"[A4c4]- [A2c2]e2 |]
[| "Am"[c'3e][c'e] [c'2e][b2d] | [a4c]- [a2c][b2d] \
| "Am"[c'3e][c'e] [b2d][c'2e] | "Dm"[d'6f] [^gB][ac] \
| "E7"[b3d][bd] [b2d][a2c] | [^g4B] "Dm"[f4A] \
| "E7"[e2^G][e2G] dBGB | "Am"[A6A6] |]
